X:3
T:Fasterna Brudmarsch
R:march
O:Swedish Bride's March
M:4/4
L:1/8
K:G
|: G2B2 | "G"d4d3^c | d2g2B2d2 | G4G3F | G2A2B2c2 |
 "C"c2e2efe^c | e2g2c2e2 | e2d2f3e |1"D"d4G2B2:|2"D"d4d2B2||
|:"C"c4c3B| c2d2e2dc | "G"B2G2B2G2 | B2d2d2cB |
 "D"A2F2A2F2 | A2B2c2BA | "G"G4B2d2 |1 g4A2B2 :|2G3|]
